Dominus_Dark_Funeral/scalable/actions/meeting-participant-no-response.svg

<svg xmlns="http://www.w3.org/2000/svg" width="24" height="24" id="svg9"><defs id="defs3"><style id="current-color-scheme"></style></defs><path d="M11.95.95a6.43 6.43 0 0 0-5.92 3.93c-.28.66-.4 1.4-.44 2.16v9.35c-2.35 1.73-2.36 4.15-2.36 4.15V22h17.54v-1.46s-.02-2.46-2.4-4.19V7.27a6.44 6.44 0 0 0-.49-2.4A6.43 6.43 0 0 0 11.95.96zm0 1.07a5.32 5.32 0 0 1 5.32 5.23v8.45a12.02 12.02 0 0 0-5.27-1c-2.35 0-4.06.42-5.31 1.03V7.06c.03-.62.12-1.24.36-1.78a5.33 5.33 0 0 1 4.9-3.26zM12 3a4.38 4.38 0 1 0-.01 8.76A4.38 4.38 0 0 0 12 3z" id="path844" fill="#e6e6e6" fill-rule="evenodd" stroke-width="7.41"/><path d="M21.09 2.52a1.46 1.46 0 0 0-1.46 1.46 1.46 1.46 0 0 0 1.46 1.46 1.46 1.46 0 0 0 1.46-1.46 1.46 1.46 0 0 0-1.46-1.46zm0 4.38a1.46 1.46 0 0 0-1.46 1.47 1.46 1.46 0 0 0 1.46 1.46 1.46 1.46 0 0 0 1.46-1.46 1.46 1.46 0 0 0-1.46-1.47zm0 4.39a1.46 1.46 0 0 0-1.46 1.46 1.46 1.46 0 0 0 1.46 1.46 1.46 1.46 0 0 0 1.46-1.46 1.46 1.46 0 0 0-1.46-1.46z" id="path824" color="#dfdfdf" fill="#e6e6e6" stroke-width="1.46" fill-opacity=".3"/></svg>

<?xml version="1.0" encoding="UTF-8" standalone="no"?>
<svg
   xmlns:dc="http://purl.org/dc/elements/1.1/"
   xmlns:cc="http://creativecommons.org/ns#"
   xmlns:rdf="http://www.w3.org/1999/02/22-rdf-syntax-ns#"
   xmlns:svg="http://www.w3.org/2000/svg"
   xmlns="http://www.w3.org/2000/svg"
   xmlns:sodipodi="http://sodipodi.sourceforge.net/DTD/sodipodi-0.dtd"
   xmlns:inkscape="http://www.inkscape.org/namespaces/inkscape"
   width="24"
   height="24"
   id="svg9"
   version="1.1"
   sodipodi:docname="meeting-participant-no-response.svg"
   inkscape:version="0.92.4 (5da689c313, 2019-01-14)">
  <metadata
     id="metadata9">
    <rdf:RDF>
      <cc:Work
         rdf:about="">
        <dc:format>image/svg+xml</dc:format>
        <dc:type
           rdf:resource="http://purl.org/dc/dcmitype/StillImage" />
        <dc:title></dc:title>
      </cc:Work>
    </rdf:RDF>
  </metadata>
  <sodipodi:namedview
     pagecolor="#ffffff"
     bordercolor="#666666"
     borderopacity="1"
     objecttolerance="10"
     gridtolerance="10"
     guidetolerance="10"
     inkscape:pageopacity="0"
     inkscape:pageshadow="2"
     inkscape:window-width="1112"
     inkscape:window-height="480"
     id="namedview7"
     showgrid="false"
     inkscape:zoom="9.8333333"
     inkscape:cx="1.0677966"
     inkscape:cy="12"
     inkscape:window-x="0"
     inkscape:window-y="25"
     inkscape:window-maximized="0"
     inkscape:current-layer="svg9" />
  <defs
     id="defs3">
    <style
       id="current-color-scheme" />
  </defs>
  <path
     d="M 11.95,0.95 A 6.43,6.43 0 0 0 6.03,4.88 C 5.75,5.54 5.63,6.28 5.59,7.04 v 9.35 C 3.24,18.12 3.23,20.54 3.23,20.54 V 22 h 17.54 v -1.46 c 0,0 -0.02,-2.46 -2.4,-4.19 V 7.27 A 6.44,6.44 0 0 0 17.88,4.87 6.43,6.43 0 0 0 11.95,0.96 Z m 0,1.07 a 5.32,5.32 0 0 1 5.32,5.23 V 15.7 A 12.02,12.02 0 0 0 12,14.7 c -2.35,0 -4.06,0.42 -5.31,1.03 V 7.06 C 6.72,6.44 6.81,5.82 7.05,5.28 a 5.33,5.33 0 0 1 4.9,-3.26 z M 12,3 A 4.3800029,4.3800029 0 1 0 11.99,11.76 4.3800029,4.3800029 0 0 0 12,3 Z"
     id="path844"
     inkscape:connector-curvature="0"
     style="fill:#e6e6e6;fill-rule:evenodd;stroke-width:7.40999985" />
  <path
     d="m 21.09,2.52 a 1.46,1.46 0 0 0 -1.46,1.46 1.46,1.46 0 0 0 1.46,1.46 1.46,1.46 0 0 0 1.46,-1.46 1.46,1.46 0 0 0 -1.46,-1.46 z m 0,4.38 A 1.46,1.46 0 0 0 19.63,8.37 1.46,1.46 0 0 0 21.09,9.83 1.46,1.46 0 0 0 22.55,8.37 1.46,1.46 0 0 0 21.09,6.9 Z m 0,4.39 a 1.46,1.46 0 0 0 -1.46,1.46 1.46,1.46 0 0 0 1.46,1.46 1.46,1.46 0 0 0 1.46,-1.46 1.46,1.46 0 0 0 -1.46,-1.46 z"
     id="path824"
     inkscape:connector-curvature="0"
     style="color:#dfdfdf;fill:#e6e6e6;fill-opacity:0.3;stroke-width:1.46000004" />
</svg>
